X:1
T:Rimsky-Korsakov Harmonic Exercises,
T:Altered Chords (2)
T:Rimsky-Korsakov Harmonic Exercises, Altered Chords (2) 
T:"Practical Manual of Harmony" (1885)
T:Examples by Rimsky-Korsakov
%%score { ( 1 2 ) | ( 3 4 ) }
L:1/8
Q:1/4=80
M:4/4
K:C
V:1 treble nm="Piano" snm="Pno."
V:2 treble 
V:3 bass 
V:4 bass 
V:1
"""_C:""^Neapolitan sixth chord""^This major chord is derived from the chromatic lowering\nof the second degree of the scale in a minor or harmonic major.\nUsed in the form of sixth chord with doubled the third, and\nresolves to the tonic six-four chord or a tonic triad.\n" (d4"" _d4 | %1
"" c4) x4 |]"""_C:" (d4"" _d4 |"" c4) x4 |][K:Eb]"""_c:" (d4"" _d4 |"" c4) x4 |]"""_c:" (d4"" _d4 | %7
"" c4) x4 |] %8
[K:C][M:5/1]""[Q:1/2=110]"_C:""^Also, this chord is sometimes used after the tonic triad." (c8"" _d8"""^(the six-four chord can be skipped)""^(  )" c8"""" B8"" !breath!c8) |] %9
[K:Eb]"""_c:" (c8"" _d8"""^(  )" c8"""" =B8"" !breath!c8) |] %10
[K:C][M:4/4]""[Q:1/4=80]"^Dominant seventh chord with a lowered fifth""^Chromatic lowering of the second degree of the scale allows you\nto form a dominant seventh chord with a lowered fifth.\n""_C:" (d4"""_♭" _d4 | %11
"" c4) x4 |][K:Eb]"""_c:" (d4"""_♭" _d4 |"" c4) x4 |] %14
V:2
 (_A4- A4 | G4) x4 |] (_A4- A4 | G4) x4 |][K:Eb] (A4- A4 | G4) x4 |] (A4- A4 | G4) x4 |] %8
[K:C][M:5/1] (G8 _A8 G8 G4 F4 E8) |][K:Eb] (G8 A8 G8 G4 F4 E8) |][K:C][M:4/4] (B4 B4 | c4) x4 |] %12
[K:Eb] (=B4 B4 | c4) x4 |] %14
V:3
 (F4- F4 | E4) x4 |] (F4- F4 | E4) x4 |][K:Eb] (F4- F4 | E4) x4 |] (F4- F4 | E4) x4 |] %8
[K:C][M:5/1] (E8 F8"^(   )" E8 =D8 C8) |][K:Eb] (E8 F8"^(   )" E8 =D8 C8) |] %10
[K:C][M:4/4]"_R-K's remark: these chords should be used sparingly." (F4 F4 | E4) x4 |] %12
[K:Eb] (F4 F4 | E4) x4 |] %14
V:4
 (F,4- F,4 | G,4) x4 |] (F,4- F,4 | C4) x4 |][K:Eb] (F,4- F,4 | G,4) x4 |] (F,4- F,4 | C4) x4 |] %8
[K:C][M:5/1] (C,8 F,8 G,8 G,8 C,8) |][K:Eb] (C,8 F,8 G,8 G,8 C,8) |][K:C][M:4/4] (G,4 G,4 | %11
 C4) x4 |][K:Eb] (G,4 G,4 | C4) x4 |] %14

